X: 111203
T: The RECOVERY
Q: "Strathspey."
R:  Strathspey.
%R: strathspey
B: James Kerr "Merry Melodies" v.1 p.11 s.2 #3
Z: 2017 John Chambers <jc:trillian.mit.edu>
M: C
L: 1/16
K: D
[|\
vD3vE uF3uG vA3vB (AF3) | D3FA3F Ad3 df3 |\
D3EF3G A3B (AF3) | Ee3 gfed ce3 ef3 |\
D3E F3G A3B (AF3) |
D3FA3F Ad3 d2(fg) | a3f (dA3) Be3 b3a |\
g3fe3d ce3 ef3 ||\
vdud3 vf3ud va3vduf3ud | Ad3 fd3 bagf ef3 |
dd3 f3d a3df3d | Bd3 BAGF Ee3 ef3 |\
dd3 f3d a3df3d | Ad3 f3d bagf ef3 |\
df3 d3A Bd3 AF3 | A3G F3E Dd3 df3 |]

%%sep 1 1 500
%%sep 1 1 500

